plasma/desktoptheme/Arc-Dark/icons/krusader_root.svg

<svg xmlns="http://www.w3.org/2000/svg" width="32" height="32" version="1">
 <g id="22-22-krusader_root" transform="translate(32.000001,10.000001)">
  <rect style="opacity:0.001" width="22" height="22" x="0" y="0"/>
  <path style="fill:#f44336" d="M 2,7 V 18.111328 C 2,18.604128 2.4014531,19 2.9003906,19 H 11 V 14.95093 L 9.5859375,15.980227 C 9.360073,16.160743 9.0178606,16.006986 9.0175781,15.724367 L 9,9.3337424 C 8.9994429,9.1456248 9.1601408,8.9949188 9.3554688,8.999758 9.4377658,9.001648 9.5167124,9.030966 9.578125,9.083742 L 11,10.195071 V 7 Z"/>
  <path style="opacity:0.3;fill:#f44336" d="m 11,7 v 3.195071 l 3.882812,3.035156 c 0.220213,0.188959 0.110367,0.5379 -0.18164,0.578125 l -2.056641,0.285156 0.964844,1.640625 c 0.215456,0.366673 0.08802,0.833225 -0.285156,1.044922 l -0.207031,0.117187 c -0.373182,0.211699 -0.847045,0.08737 -1.0625,-0.279296 L 11.052734,14.911867 11,14.95093 V 19 h 8.101562 C 19.600162,19 20,18.604217 20,18.111328 V 7 Z"/>
  <path style="fill:#f44336" d="M 2.9,3 C 2.40104,3 2,3.3962222 2,3.8886666 V 6 H 20 V 3.8886666 C 20,3.3962222 19.59905,3 19.1,3 Z"/>
 </g>
 <g id="krusader_root">
  <rect style="opacity:0.001" width="32" height="32" x="0" y="0"/>
  <path style="opacity:0.3;fill:#f44336" d="M 16 10 L 16 13.792969 L 21.826172 18.345703 C 22.156524 18.629138 21.990787 19.152554 21.552734 19.212891 L 18.466797 19.640625 L 19.914062 22.103516 C 20.237279 22.653518 20.046147 23.350427 19.486328 23.667969 L 19.175781 23.845703 C 18.615952 24.163247 17.905245 23.977726 17.582031 23.427734 L 16.080078 20.869141 L 16 20.925781 L 16 27 L 27.703125 27 C 28.423325 27 29 26.428747 29 25.716797 L 29 10 L 16 10 z"/>
  <path style="fill:#f44336" d="M 4.3007812 4 C 3.5800612 4 3 4.5699979 3 5.2792969 L 3 8 L 29 8 L 29 5.2792969 C 29 4.5699979 28.420069 4 27.699219 4 L 4.3007812 4 z M 3 10 L 3 25.716797 C 3 26.428619 3.5800938 27 4.3007812 27 L 16 27 L 16 20.925781 L 13.878906 22.472656 C 13.540077 22.743427 13.027768 22.509859 13.027344 22.085938 L 13 12.501953 C 12.999162 12.219781 13.240182 11.992741 13.533203 12 C 13.656662 12.0028 13.773106 12.045841 13.865234 12.125 L 16 13.792969 L 16 10 L 3 10 z"/>
 </g>
</svg>

<?xml version="1.0" encoding="UTF-8"?>
<svg width="32" height="32" version="1" xmlns="http://www.w3.org/2000/svg">
 <g id="22-22-krusader_root" transform="translate(32 10)">
  <rect width="22" height="22" opacity=".001"/>
  <path d="m2 7v11.111c0 0.4928 0.40145 0.88867 0.90039 0.88867h8.0996v-4.0491l-1.4141 1.0293c-0.22586 0.18052-0.56808 0.026759-0.56836-0.25586l-0.017578-6.3906c-5.571e-4 -0.18812 0.16014-0.33882 0.35547-0.33398 0.082297 0.00189 0.16124 0.031208 0.22266 0.083984l1.4219 1.1113v-3.1951z" fill="#f44336"/>
  <path d="m11 7v3.1951l3.8828 3.0352c0.22021 0.18896 0.11037 0.5379-0.18164 0.57812l-2.0566 0.28516 0.96484 1.6406c0.21546 0.36667 0.08802 0.83322-0.28516 1.0449l-0.20703 0.11719c-0.37318 0.2117-0.84704 0.08737-1.0625-0.2793l-1.002-1.7051-0.052734 0.039063v4.0491h8.1016c0.4986 0 0.89844-0.39578 0.89844-0.88867v-11.111z" fill="#f44336" opacity=".3"/>
  <path d="m2.9 3c-0.49896 0-0.9 0.39622-0.9 0.88867v2.1113h18v-2.1113c0-0.49244-0.40095-0.88867-0.9-0.88867z" fill="#f44336"/>
 </g>
 <g id="krusader_root">
  <rect width="32" height="32" opacity=".001"/>
  <path d="m16 10v3.793l5.8262 4.5527c0.33035 0.28344 0.16462 0.80685-0.27344 0.86719l-3.0859 0.42773 1.4473 2.4629c0.32322 0.55 0.13208 1.2469-0.42773 1.5645l-0.31055 0.17773c-0.55983 0.31754-1.2705 0.13202-1.5938-0.41797l-1.502-2.5586-0.080078 0.05664v6.0742h11.703c0.7202 0 1.2969-0.57125 1.2969-1.2832v-15.717h-13z" fill="#f44336" opacity=".3"/>
  <path d="m4.3008 4c-0.72072 0-1.3008 0.57-1.3008 1.2793v2.7207h26v-2.7207c0-0.7093-0.57993-1.2793-1.3008-1.2793h-23.398zm-1.3008 6v15.717c0 0.71182 0.58009 1.2832 1.3008 1.2832h11.699v-6.0742l-2.1211 1.5469c-0.33883 0.27077-0.85114 0.037203-0.85156-0.38672l-0.027344-9.584c-8.38e-4 -0.28217 0.24018-0.50921 0.5332-0.50195 0.12346 0.0028 0.2399 0.045841 0.33203 0.125l2.1348 1.668v-3.793h-13z" fill="#f44336"/>
 </g>
</svg>
